icons/cloud-arrow-right.svg

<svg xmlns="http://www.w3.org/2000/svg" width="24" height="24" viewBox="0 0 24 24">
  <path d="M12.5,3 C16.918278,3 20.5,6.581722 20.5,11 C20.5,11.1204206 20.4973322,11.2405319 20.4920144,11.3602705 L20.4920144,11.3602705 L20.472,11.654 L20.5287365,11.6859719 C21.9683651,12.5292172 22.9183208,14.0574067 22.9949844,15.7749408 L22.9949844,15.7749408 L23,16 C23,18.6686219 20.9044736,20.8633628 18.2241536,20.9948042 L18.2241536,20.9948042 L18,21 L6.5,21 C6.38859112,21 6.28147754,20.9817932 6.18145173,20.9482064 L6.18145173,20.9482064 L6.166,20.942 L5.94889404,20.9081606 C3.19270368,20.4215684 1.11197825,18.064907 1.0043751,15.2308104 L1.0043751,15.2308104 L1,15 C1,12.5890868 2.43448394,10.4577805 4.56984355,9.51249345 L4.56984355,9.51249345 L4.646,9.48 L4.66919046,9.36089212 C5.4117318,5.78500472 8.52762508,3.12063681 12.2455902,3.00398632 L12.2455902,3.00398632 Z M15.7837744,12.3788907 L15.7803112,12.374551 L15.767,12.359 L15.775,12.37 L15.7071068,12.2928932 L12.7071068,9.29289322 L12.6128994,9.20970461 C12.2206082,8.90467972 11.6533772,8.93240926 11.2928932,9.29289322 C10.9023689,9.68341751 10.9023689,10.3165825 11.2928932,10.7071068 L11.2928932,10.7071068 L12.585,12 L9,12 L8.88337887,12.0067277 C8.38604019,12.0644928 8,12.4871642 8,13 C8,13.5522847 8.44771525,14 9,14 L9,14 L12.585,14 L11.2928932,15.2928932 L11.2097046,15.3871006 C10.9046797,15.7793918 10.9324093,16.3466228 11.2928932,16.7071068 C11.6834175,17.0976311 12.3165825,17.0976311 12.7071068,16.7071068 L12.7071068,16.7071068 L15.7071068,13.7071068 L15.7803112,13.625449 C15.7826279,13.6225624 15.7849289,13.6196628 15.7902954,13.6128994 C15.7948255,13.6070733 15.7992821,13.6012086 15.8036865,13.5951593 C15.8215099,13.5711307 15.8382813,13.546275 15.8540045,13.5207088 C15.8613931,13.5086131 15.8685012,13.4963944 15.8751242,13.484277 C15.8862061,13.4642939 15.8966234,13.4438914 15.9063266,13.4232215 L15.9063266,13.4232215 L15.928896,13.3710585 C15.9366843,13.3515792 15.9438775,13.3317977 15.9502619,13.3121425 C15.9552713,13.2968513 15.9599023,13.2814633 15.964279,13.2658396 C15.9701664,13.2444365 15.9753602,13.2227461 15.9797599,13.2007258 C15.9832978,13.1833753 15.9863719,13.165949 15.9889807,13.1489612 L15.9889807,13.1489612 L15.996,13.081 L15.997,13.059 L15.997,13.075 L15.9982669,13.0590314 L15.999,13.019 L16,13 L16,13 L15.9998198,12.980824 L15.9982669,12.9409686 C15.9976744,12.9308872 15.99693,12.9208131 15.996002,12.909968 L15.996002,12.909968 L15.9889822,12.8515331 C15.9863719,12.834051 15.9832978,12.8166247 15.9798348,12.7992059 C15.9753602,12.7772539 15.9701664,12.7555635 15.9641549,12.734007 C15.9599023,12.7185367 15.9552713,12.7031487 15.9504533,12.6882636 C15.9438775,12.6682023 15.9366843,12.6484208 15.9287745,12.628664 L15.9287745,12.628664 L15.9063462,12.5769009 C15.8966234,12.5561086 15.8862061,12.5357061 15.8753288,12.5159379 L15.8753288,12.5159379 L15.8539326,12.4793398 C15.8382813,12.453725 15.8215099,12.4288693 15.8036654,12.4046934 L15.8036654,12.4046934 L15.779,12.374 L15.7837744,12.3788907 Z"/>
</svg>

<svg xmlns="http://www.w3.org/2000/svg" viewBox="0 0 24 24">
  <path d="M12.5 3a8 8 0 0 1 8 8.36l-.03.3.06.03a5 5 0 0 1 2.46 4.08L23 16a5 5 0 0 1-4.78 5H6.5a1 1 0 0 1-.32-.05h-.01l-.22-.04A6 6 0 0 1 1 15.23V15a6 6 0 0 1 3.57-5.49l.08-.03.02-.12A8 8 0 0 1 12.25 3zm3.28 9.38-.01-.02v.01l-.06-.08-3-3-.1-.08a1 1 0 0 0-1.32 1.5L12.6 12H8.88A1 1 0 0 0 9 14h3.59l-1.3 1.3-.08.09a1 1 0 0 0 1.5 1.32l3-3 .07-.08a3 3 0 0 0 .1-.15l.03-.06.02-.05a.95.95 0 0 0 .06-.22v-.09.01-.05L16 13v-.09l-.01-.06a1.1 1.1 0 0 0-.06-.22l-.02-.05a1.04 1.04 0 0 0-.03-.06l-.03-.04a1.03 1.03 0 0 0-.05-.08l-.02-.03z"/>
</svg>
